X:53216
F:http://www.vwml.org/record/HAM/5/32/16%%VWML:HAM-5-32-16-0
T:Tis of a brisk young Lady
T:'Tis of a brisk young Lady
S:Mrs Marina Russell, Upwey coll. HED Hammond
O:England
A:Dorset
N:Transcribed from HAM-02-231.gif
F:HAM-05-32-16.abc
Z:EFDSS;PJHeadford
M:C
L:1/4
Q:2/4=50
K:D
D/E/|FF ED|de2 d|c>B BA|B3 e|
dD FA|dc2 B|A"_F"F/E/ DC&x3"<("">)"D|D3||
W:[left of the title:] 512 [right of title:] Mrs Hammond of Upwey
W:[after end of tune:] Words D VII. p65 [bracketed with this:] and D V p.72
W:[below tune:] cp.tune 236 (sung to [undeciphered])
W:[there is no indication of why the title of this song has later been tampered with - PJH] W:
W:[Words below from Hammond's field notes, HAM-01-685.gif:]
W:
W:Its of a brisk young lady so beautiful & gay
W:And she had sweethearts plenty court her night & day
W:She had not long been courted before with child she proved
W:She lived so discontented, she told it to her love
W:
W:Oh William, dearest William I am with child by thee
W:Oh will you see me right again or will you marry me
W:
W:Oh! Mary dearest Mary since you're a run such risk
W:I cant no more admire your sweet and handsome face
W:
W:Then up & down she wandered, trying to hide her shame
W:Till at last herself she drownded for the sake of sweet Wm.
W:
W:Come all you constant lovers that have a mind to love
W:Oh be you constant & true then & sure that you love for love
W:
W:[there are two verses in the MIDI file, the second using the alternative note in bar 7]
